Obsidian-SemiLight/actions/16s/quickopen-file.svg

<svg viewBox="0 0 16 16" xmlns="http://www.w3.org/2000/svg"><path d="m5 2-2 3h1v2l2-3h-1zm3 0v1h4v7h-3v3h-5v-5h-1v6h6 1l3-3v-1-8z" fill="#4d4d4d"/></svg>

<svg xmlns="http://www.w3.org/2000/svg" viewBox="0 0 16 16">
  <defs id="defs3051">
    <style type="text/css" id="current-color-scheme">
      .ColorScheme-Text {
        color:#4d4d4d;
      }
      </style>
  </defs>
 <path style="fill:currentColor;fill-opacity:1;stroke:none" 
     d="M 5 2 L 3 5 L 4 5 L 4 7 L 6 4 L 5 4 L 5 2 z M 8 2 L 8 3 L 12 3 L 12 10 L 9 10 L 9 13 L 4 13 L 4 8 L 3 8 L 3 14 L 9 14 L 10 14 L 13 11 L 13 10 L 13 2 L 8 2 z "
     class="ColorScheme-Text"
     />
</svg>
